svg/pin_3.svg

<svg xmlns="http://www.w3.org/2000/svg" viewBox="0 0 32 32" enable-background="new 0 0 32 32"><path d="M 20.46875 2.5625 L 19.75 3.3125 C 18.705223 4.4617546 18.207776 5.9178358 18.09375 7.375 L 14.03125 11.4375 C 11.55925 10.99868 8.9027667 11.690983 7 13.59375 L 6.28125 14.3125 L 7 15 L 11.3125 19.3125 L 3 27.59375 L 3 29 L 4.40625 29 L 12.6875 20.6875 L 16.90625 24.90625 L 17.59375 25.625 L 18.3125 24.90625 C 20.408241 22.810509 21.003462 19.931711 20.375 17.34375 L 23.9375 13.78125 C 25.674951 13.987658 27.450979 13.486521 28.71875 12.21875 L 29.40625 11.5 L 28.71875 10.78125 L 21.21875 3.28125 L 20.46875 2.5625 z M 20.6875 5.625 L 26.375 11.3125 C 25.549553 11.779487 24.659282 12.071071 23.75 11.84375 L 23.1875 11.6875 L 22.78125 12.09375 L 18.59375 16.28125 L 18.15625 16.71875 L 18.34375 17.3125 C 18.931368 19.075355 18.659114 21.06291 17.5 22.6875 L 9.3125 14.5 C 10.766836 13.500434 12.517698 13.041302 14.15625 13.46875 L 14.6875 13.625 L 15.09375 13.21875 L 19.71875 8.59375 L 20 8.3125 L 20 7.90625 C 20 7.1033608 20.292757 6.3428686 20.6875 5.625 z"/></svg>

<svg xmlns="http://www.w3.org/2000/svg" viewBox="0 0 32 32"><path d="M20.47 2.563l-.72.75c-1.045 1.15-1.542 2.605-1.656 4.062l-4.063 4.063c-2.47-.44-5.127.253-7.03 2.156l-.72.72.72.686 4.313 4.313L3 27.593V29h1.406l8.282-8.313 4.218 4.22.688.718.718-.72c2.096-2.094 2.69-4.973 2.063-7.56l3.563-3.564c1.737.208 3.513-.293 4.78-1.56l.688-.72-.687-.72-7.5-7.5-.75-.717zm.218 3.062l5.687 5.688c-.825.466-1.716.758-2.625.53l-.563-.155-.406.406-4.186 4.187-.438.44.188.593c.587 1.762.315 3.75-.844 5.375L9.312 14.5c1.455-1 3.206-1.46 4.844-1.03l.53.155.408-.406 4.625-4.626.28-.28v-.408c0-.803.293-1.563.688-2.28z"/></svg>
